; generated by Slic3r 1.3.0 on 2021-02-21 at 18:29:12

; external perimeters extrusion width = 0.44mm (3.38mm^3/s)
; perimeters extrusion width = 0.48mm (7.54mm^3/s)
; infill extrusion width = 0.48mm (10.05mm^3/s)
; solid infill extrusion width = 0.48mm (2.51mm^3/s)
; top infill extrusion width = 0.48mm (1.88mm^3/s)

M107
M104 S200 ; set temperature
G28 ; home all axes
G1 Z5 F5000 ; lift nozzle

; Filament gcode

M109 S200 ; set temperature and wait for it to be reached
G21 ; set units to millimeters
G90 ; use absolute coordinates
M82 ; use absolute distances for extrusion
G92 E0
G1 Z0.350 F7800.000
G10
G92 E0
G1 X27.820 Y75.481 F7800.000
G11
G92 E0
G1 F1800
G1 X29.000 Y75.375 E0.03665
G1 X129.000 Y75.375 E3.13078
G1 X132.287 Y76.248 E3.23601
G1 X174.287 Y100.248 E4.73275
G1 X176.051 Y101.713 E4.80371
G1 X177.210 Y103.692 E4.87467
G1 X177.625 Y106.000 E4.94722
G1 X177.625 Y118.000 E5.31851
G1 X177.228 Y120.259 E5.38947
G1 X176.085 Y122.247 E5.46044
G1 X174.332 Y123.726 E5.53140
G1 X172.180 Y124.519 E5.60236
G1 X171.000 Y124.625 E5.63901
G1 X114.000 Y124.625 E7.40267
G1 X112.774 Y124.511 E7.44075
G1 X27.774 Y108.511 E10.11695
G1 X25.628 Y107.703 E10.18791
G1 X23.886 Y106.211 E10.25888
G1 X22.756 Y104.215 E10.32984
G1 X22.375 Y102.000 E10.39938
G1 X22.375 Y82.000 E11.01821
G1 X22.772 Y79.741 E11.08917
G1 X23.915 Y77.753 E11.16013
G1 X25.668 Y76.274 E11.23110
G1 X27.764 Y75.502 E11.30020
G10
G92 E0
G1 X157.650 Y116.350 F7800.000
G11
G92 E0
G1 F1800
G1 X157.650 Y107.650 E0.26919
G1 X167.350 Y107.650 E0.56932
G1 X167.350 Y116.350 E0.83851
G1 X157.710 Y116.350 E1.13678
G1 X157.262 Y116.447 F7800.000
G10
G92 E0
G1 X168.600 Y116.400 F7800.000
G11
G92 E0
G1 F1800
G1 X168.600 Y107.600 E0.27230
G1 X169.400 Y107.600 E0.29706
G1 X169.400 Y116.400 E0.56936
G1 X168.660 Y116.400 E0.59227
G1 X167.975 Y117.025 F7800.000
G1 F1800
G1 X167.975 Y106.975 E0.90324
G1 X170.025 Y106.975 E0.96668
G1 X170.025 Y117.025 E1.27764
G1 X168.035 Y117.025 E1.33922
G10
G92 E0
G1 X127.400 Y107.600 F7800.000
G11
G92 E0
G1 F1800
G1 X156.400 Y107.600 E0.89730
G1 X156.400 Y116.400 E1.16960
G1 X115.600 Y116.400 E2.43201
G1 X115.600 Y100.400 E2.92708
G1 X30.600 Y100.400 E5.55709
G1 X30.600 Y83.600 E6.07692
G1 X127.400 Y83.600 E9.07205
G1 X127.400 Y107.540 E9.81278
G1 X128.025 Y106.975 F7800.000
G1 F1800
G1 X157.025 Y106.975 E10.71008
G1 X157.025 Y117.025 E11.02105
G1 X114.975 Y117.025 E12.32214
G1 X114.975 Y101.025 E12.81720
G1 X29.975 Y101.025 E15.44721
G1 X29.975 Y82.975 E16.00571
G1 X128.025 Y82.975 E19.03951
G1 X128.025 Y106.915 E19.78025
G1 X128.650 Y106.350 F7800.000
G1 F1800
G1 X170.650 Y106.350 E21.07978
G1 X170.650 Y117.650 E21.42942
G1 X114.350 Y117.650 E23.17141
G1 X114.350 Y101.650 E23.66648
G1 X29.350 Y101.650 E26.29649
G1 X29.350 Y82.350 E26.89366
G1 X128.650 Y82.350 E29.96613
G1 X128.650 Y106.290 E30.70686
G1 X128.822 Y106.711 F7800.000
G10
G92 E0
G1 X155.532 Y116.018 F7800.000
G11
G92 E0
G1 F1800
G1 X156.018 Y115.532 E0.02135
G1 X156.018 Y114.645 E0.04889
G1 X154.645 Y116.018 E0.10920
G1 X153.758 Y116.018 E0.13674
G1 X156.018 Y113.758 E0.23599
G1 X156.018 Y112.871 E0.26354
G1 X152.871 Y116.018 E0.40174
G1 X151.984 Y116.018 E0.42929
G1 X156.018 Y111.984 E0.60644
G1 X156.018 Y111.097 E0.63399
G1 X151.097 Y116.018 E0.85009
G1 X150.211 Y116.018 E0.87764
G1 X156.018 Y110.211 E1.13270
G1 X156.018 Y109.324 E1.16024
G1 X149.324 Y116.018 E1.45425
G1 X148.437 Y116.018 E1.48179
G1 X156.018 Y108.437 E1.81476
G1 X156.018 Y107.982 E1.82889
G1 X155.587 Y107.982 E1.84230
G1 X147.550 Y116.018 E2.19525
G1 X146.663 Y116.018 E2.22279
G1 X154.700 Y107.982 E2.57574
G1 X153.813 Y107.982 E2.60328
G1 X145.776 Y116.018 E2.95623
G1 X144.889 Y116.018 E2.98377
G1 X152.926 Y107.982 E3.33672
G1 X152.039 Y107.982 E3.36426
G1 X144.002 Y116.018 E3.71721
G1 X143.115 Y116.018 E3.74475
G1 X151.152 Y107.982 E4.09770
G1 X150.265 Y107.982 E4.12524
G1 X142.228 Y116.018 E4.47819
G1 X141.341 Y116.018 E4.50573
G1 X149.378 Y107.982 E4.85868
G1 X148.491 Y107.982 E4.88622
G1 X140.454 Y116.018 E5.23917
G1 X139.567 Y116.018 E5.26671
G1 X147.604 Y107.982 E5.61966
G1 X146.717 Y107.982 E5.64720
G1 X138.680 Y116.018 E6.00015
G1 X137.793 Y116.018 E6.02769
G1 X145.830 Y107.982 E6.38064
G1 X144.943 Y107.982 E6.40818
G1 X136.906 Y116.018 E6.76113
G1 X136.020 Y116.018 E6.78867
G1 X144.056 Y107.982 E7.14162
G1 X143.169 Y107.982 E7.16916
G1 X135.133 Y116.018 E7.52211
G1 X134.246 Y116.018 E7.54965
G1 X142.282 Y107.982 E7.90260
G1 X141.395 Y107.982 E7.93014
G1 X133.359 Y116.018 E8.28309
G1 X132.472 Y116.018 E8.31063
G1 X140.509 Y107.982 E8.66358
G1 X139.622 Y107.982 E8.69112
G1 X131.585 Y116.018 E9.04407
G1 X130.698 Y116.018 E9.07161
G1 X138.735 Y107.982 E9.42456
G1 X137.848 Y107.982 E9.45210
G1 X129.811 Y116.018 E9.80505
G1 X128.924 Y116.018 E9.83259
G1 X136.961 Y107.982 E10.18554
G1 X136.074 Y107.982 E10.21308
G1 X128.037 Y116.018 E10.56603
G1 X127.150 Y116.018 E10.59357
G1 X135.187 Y107.982 E10.94652
G1 X134.300 Y107.982 E10.97406
G1 X126.263 Y116.018 E11.32701
G1 X125.376 Y116.018 E11.35455
G1 X133.413 Y107.982 E11.70750
G1 X132.526 Y107.982 E11.73504
G1 X124.489 Y116.018 E12.08799
G1 X123.602 Y116.018 E12.11553
G1 X131.639 Y107.982 E12.46848
G1 X130.752 Y107.982 E12.49602
G1 X122.715 Y116.018 E12.84897
G1 X121.829 Y116.018 E12.87651
G1 X129.865 Y107.982 E13.22946
G1 X128.978 Y107.982 E13.25700
G1 X120.942 Y116.018 E13.60995
G1 X120.055 Y116.018 E13.63749
G1 X128.091 Y107.982 E13.99044
G1 X127.204 Y107.982 E14.01798
G1 X119.168 Y116.018 E14.37093
G1 X118.281 Y116.018 E14.39847
G1 X127.018 Y107.281 E14.78220
G1 X127.018 Y106.394 E14.80974
G1 X117.394 Y116.018 E15.23242
G1 X116.507 Y116.018 E15.25996
G1 X127.018 Y105.507 E15.72159
G1 X127.018 Y104.620 E15.74913
G1 X115.982 Y115.657 E16.23383
G1 X115.982 Y114.770 E16.26137
G1 X127.018 Y103.733 E16.74607
G1 X127.018 Y102.846 E16.77361
G1 X115.982 Y113.883 E17.25831
G1 X115.982 Y112.996 E17.28585
G1 X127.018 Y101.959 E17.77055
G1 X127.018 Y101.072 E17.79809
G1 X115.982 Y112.109 E18.28279
G1 X115.982 Y111.222 E18.31033
G1 X127.018 Y100.185 E18.79503
G1 X127.018 Y99.298 E18.82257
G1 X115.982 Y110.335 E19.30727
G1 X115.982 Y109.448 E19.33481
G1 X127.018 Y98.411 E19.81951
G1 X127.018 Y97.524 E19.84705
G1 X115.982 Y108.561 E20.33175
G1 X115.982 Y107.674 E20.35929
G1 X127.018 Y96.638 E20.84399
G1 X127.018 Y95.751 E20.87153
G1 X115.982 Y106.787 E21.35623
G1 X115.982 Y105.900 E21.38377
G1 X127.018 Y94.864 E21.86847
G1 X127.018 Y93.977 E21.89601
G1 X115.982 Y105.013 E22.38071
G1 X115.982 Y104.127 E22.40825
G1 X127.018 Y93.090 E22.89295
G1 X127.018 Y92.203 E22.92049
G1 X115.982 Y103.240 E23.40519
G1 X115.982 Y102.353 E23.43273
G1 X127.018 Y91.316 E23.91743
G1 X127.018 Y90.429 E23.94497
G1 X115.982 Y101.466 E24.42967
G1 X115.982 Y100.579 E24.45721
G1 X127.018 Y89.542 E24.94191
G1 X127.018 Y88.655 E24.96945
G1 X115.655 Y100.018 E25.46849
G1 X114.768 Y100.018 E25.49603
G1 X127.018 Y87.768 E26.03402
G1 X127.018 Y86.881 E26.06156
G1 X113.881 Y100.018 E26.63850
G1 X112.994 Y100.018 E26.66605
G1 X127.018 Y85.994 E27.28194
G1 X127.018 Y85.107 E27.30948
G1 X112.107 Y100.018 E27.96432
G1 X111.220 Y100.018 E27.99187
G1 X127.018 Y84.220 E28.68566
G1 X127.018 Y83.982 E28.69308
G1 X126.370 Y83.982 E28.71320
G1 X110.333 Y100.018 E29.41748
G1 X109.447 Y100.018 E29.44503
G1 X125.483 Y83.982 E30.14931
G1 X124.596 Y83.982 E30.17685
G1 X108.560 Y100.018 E30.88113
G1 X107.673 Y100.018 E30.90867
G1 X123.709 Y83.982 E31.61295
G1 X122.822 Y83.982 E31.64050
G1 X106.786 Y100.018 E32.34478
G1 X105.899 Y100.018 E32.37232
G1 X121.936 Y83.982 E33.07660
G1 X121.049 Y83.982 E33.10414
G1 X105.012 Y100.018 E33.80842
G1 X104.125 Y100.018 E33.83597
G1 X120.162 Y83.982 E34.54025
G1 X119.275 Y83.982 E34.56779
G1 X103.238 Y100.018 E35.27207
G1 X102.351 Y100.018 E35.29961
G1 X118.388 Y83.982 E36.00389
G1 X117.501 Y83.982 E36.03144
G1 X101.464 Y100.018 E36.73572
G1 X100.577 Y100.018 E36.76326
G1 X116.614 Y83.982 E37.46754
G1 X115.727 Y83.982 E37.49508
G1 X99.690 Y100.018 E38.19936
G1 X98.803 Y100.018 E38.22690
G1 X114.840 Y83.982 E38.93119
G1 X113.953 Y83.982 E38.95873
G1 X97.916 Y100.018 E39.66301
G1 X97.029 Y100.018 E39.69055
G1 X113.066 Y83.982 E40.39483
G1 X112.179 Y83.982 E40.42237
G1 X96.142 Y100.018 E41.12665
G1 X95.255 Y100.018 E41.15420
G1 X111.292 Y83.982 E41.85848
G1 X110.405 Y83.982 E41.88602
G1 X94.369 Y100.018 E42.59030
G1 X93.482 Y100.018 E42.61784
G1 X109.518 Y83.982 E43.32212
G1 X108.631 Y83.982 E43.34967
G1 X92.595 Y100.018 E44.05395
G1 X91.708 Y100.018 E44.08149
G1 X107.745 Y83.982 E44.78577
G1 X106.858 Y83.982 E44.81331
G1 X90.821 Y100.018 E45.51759
G1 X89.934 Y100.018 E45.54514
G1 X105.971 Y83.982 E46.24942
G1 X105.084 Y83.982 E46.27696
G1 X89.047 Y100.018 E46.98124
G1 X88.160 Y100.018 E47.00878
G1 X104.197 Y83.982 E47.71306
G1 X103.310 Y83.982 E47.74061
G1 X87.273 Y100.018 E48.44489
G1 X86.386 Y100.018 E48.47243
G1 X102.423 Y83.982 E49.17671
G1 X101.536 Y83.982 E49.20425
G1 X85.499 Y100.018 E49.90853
G1 X84.612 Y100.018 E49.93608
G1 X100.649 Y83.982 E50.64036
G1 X99.762 Y83.982 E50.66790
G1 X83.725 Y100.018 E51.37218
G1 X82.838 Y100.018 E51.39972
G1 X98.875 Y83.982 E52.10400
G1 X97.988 Y83.982 E52.13155
G1 X81.951 Y100.018 E52.83583
G1 X81.064 Y100.018 E52.86337
G1 X97.101 Y83.982 E53.56765
G1 X96.214 Y83.982 E53.59519
G1 X80.178 Y100.018 E54.29947
G1 X79.291 Y100.018 E54.32702
G1 X95.327 Y83.982 E55.03130
G1 X94.440 Y83.982 E55.05884
G1 X78.404 Y100.018 E55.76312
G1 X77.517 Y100.018 E55.79066
G1 X93.553 Y83.982 E56.49494
G1 X92.667 Y83.982 E56.52249
G1 X76.630 Y100.018 E57.22677
G1 X75.743 Y100.018 E57.25431
G1 X91.780 Y83.982 E57.95859
G1 X90.893 Y83.982 E57.98613
G1 X74.856 Y100.018 E58.69041
G1 X73.969 Y100.018 E58.71796
G1 X90.006 Y83.982 E59.42224
G1 X89.119 Y83.982 E59.44978
G1 X73.082 Y100.018 E60.15406
G1 X72.195 Y100.018 E60.18160
G1 X88.232 Y83.982 E60.88588
G1 X87.345 Y83.982 E60.91342
G1 X71.308 Y100.018 E61.61771
G1 X70.421 Y100.018 E61.64525
G1 X86.458 Y83.982 E62.34953
G1 X85.571 Y83.982 E62.37707
G1 X69.534 Y100.018 E63.08135
G1 X68.647 Y100.018 E63.10889
G1 X84.684 Y83.982 E63.81317
G1 X83.797 Y83.982 E63.84072
G1 X67.760 Y100.018 E64.54500
G1 X66.873 Y100.018 E64.57254
G1 X82.910 Y83.982 E65.27682
G1 X82.023 Y83.982 E65.30436
G1 X65.987 Y100.018 E66.00864
G1 X65.100 Y100.018 E66.03619
G1 X81.136 Y83.982 E66.74047
G1 X80.249 Y83.982 E66.76801
G1 X64.213 Y100.018 E67.47229
G1 X63.326 Y100.018 E67.49983
G1 X79.362 Y83.982 E68.20411
G1 X78.476 Y83.982 E68.23166
G1 X62.439 Y100.018 E68.93594
G1 X61.552 Y100.018 E68.96348
G1 X77.589 Y83.982 E69.66776
G1 X76.702 Y83.982 E69.69530
G1 X60.665 Y100.018 E70.39958
G1 X59.778 Y100.018 E70.42713
G1 X75.815 Y83.982 E71.13141
G1 X74.928 Y83.982 E71.15895
G1 X58.891 Y100.018 E71.86323
G1 X58.004 Y100.018 E71.89077
G1 X74.041 Y83.982 E72.59505
G1 X73.154 Y83.982 E72.62260
G1 X57.117 Y100.018 E73.32688
G1 X56.230 Y100.018 E73.35442
G1 X72.267 Y83.982 E74.05870
G1 X71.380 Y83.982 E74.08624
G1 X55.343 Y100.018 E74.79052
G1 X54.456 Y100.018 E74.81807
G1 X70.493 Y83.982 E75.52235
G1 X69.606 Y83.982 E75.54989
G1 X53.569 Y100.018 E76.25417
G1 X52.682 Y100.018 E76.28171
G1 X68.719 Y83.982 E76.98599
G1 X67.832 Y83.982 E77.01354
G1 X51.796 Y100.018 E77.71782
G1 X50.909 Y100.018 E77.74536
G1 X66.945 Y83.982 E78.44964
G1 X66.058 Y83.982 E78.47718
G1 X50.022 Y100.018 E79.18146
G1 X49.135 Y100.018 E79.20901
G1 X65.171 Y83.982 E79.91329
G1 X64.285 Y83.982 E79.94083
G1 X48.248 Y100.018 E80.64511
G1 X47.361 Y100.018 E80.67265
G1 X63.398 Y83.982 E81.37693
G1 X62.511 Y83.982 E81.40448
G1 X46.474 Y100.018 E82.10876
G1 X45.587 Y100.018 E82.13630
G1 X61.624 Y83.982 E82.84058
G1 X60.737 Y83.982 E82.86812
G1 X44.700 Y100.018 E83.57240
G1 X43.813 Y100.018 E83.59994
G1 X59.850 Y83.982 E84.30423
G1 X58.963 Y83.982 E84.33177
G1 X42.926 Y100.018 E85.03605
G1 X42.039 Y100.018 E85.06359
G1 X58.076 Y83.982 E85.76787
G1 X57.189 Y83.982 E85.79541
G1 X41.152 Y100.018 E86.49969
G1 X40.265 Y100.018 E86.52724
G1 X56.302 Y83.982 E87.23152
G1 X55.415 Y83.982 E87.25906
G1 X39.378 Y100.018 E87.96334
G1 X38.491 Y100.018 E87.99088
G1 X54.528 Y83.982 E88.69516
G1 X53.641 Y83.982 E88.72271
G1 X37.605 Y100.018 E89.42699
G1 X36.718 Y100.018 E89.45453
G1 X52.754 Y83.982 E90.15881
G1 X51.867 Y83.982 E90.18635
G1 X35.831 Y100.018 E90.89063
G1 X34.944 Y100.018 E90.91818
G1 X50.980 Y83.982 E91.62246
G1 X50.094 Y83.982 E91.65000
G1 X34.057 Y100.018 E92.35428
G1 X33.170 Y100.018 E92.38182
G1 X49.207 Y83.982 E93.08610
G1 X48.320 Y83.982 E93.11365
G1 X32.283 Y100.018 E93.81793
G1 X31.396 Y100.018 E93.84547
G1 X47.433 Y83.982 E94.54975
G1 X46.546 Y83.982 E94.57729
G1 X30.982 Y99.546 E95.26082
G1 X30.982 Y98.659 E95.28836
G1 X45.659 Y83.982 E95.93293
G1 X44.772 Y83.982 E95.96048
G1 X30.982 Y97.772 E96.56610
G1 X30.982 Y96.885 E96.59364
G1 X43.885 Y83.982 E97.16031
G1 X42.998 Y83.982 E97.18785
G1 X30.982 Y95.998 E97.71557
G1 X30.982 Y95.111 E97.74312
G1 X42.111 Y83.982 E98.23188
G1 X41.224 Y83.982 E98.25943
G1 X30.982 Y94.224 E98.70924
G1 X30.982 Y93.337 E98.73679
G1 X40.337 Y83.982 E99.14765
G1 X39.450 Y83.982 E99.17519
G1 X30.982 Y92.450 E99.54711
G1 X30.982 Y91.563 E99.57465
G1 X38.563 Y83.982 E99.90761
G1 X37.676 Y83.982 E99.93516
G1 X30.982 Y90.676 E100.22917
G1 X30.982 Y89.789 E100.25671
G1 X36.789 Y83.982 E100.51177
G1 X35.903 Y83.982 E100.53931
G1 X30.982 Y88.903 E100.75542
G1 X30.982 Y88.016 E100.78297
G1 X35.016 Y83.982 E100.96012
G1 X34.129 Y83.982 E100.98767
G1 X30.982 Y87.129 E101.12587
G1 X30.982 Y86.242 E101.15341
G1 X33.242 Y83.982 E101.25267
G1 X32.355 Y83.982 E101.28021
G1 X30.982 Y85.355 E101.34051
G1 X30.982 Y84.468 E101.36806
G1 X31.468 Y83.982 E101.38941
G10
G92 E0
G1 X157.338 Y107.000 F7800.000
G11
G92 E0
G1 F1800
G1 X167.662 Y107.000 E0.30674
G1 X169.000 Y107.912 F7800.000
G1 F1800
G1 X169.000 Y116.088 E0.34740
G1 X167.662 Y117.000 F7800.000
G1 F1800
G1 X157.338 Y117.000 E0.65415
G1 Z0.650 F7800.000
G1 X157.383 Y107.383 F7800.000
G1 F900
G1 X167.617 Y107.383 E0.83609
G1 X167.617 Y116.617 E1.00026
G1 X157.383 Y116.617 E1.18221
G1 X157.383 Y107.443 E1.34531
G1 X157.780 Y107.780 F7800.000
G1 F900
G1 X167.220 Y107.780 E1.49580
G1 X167.220 Y116.220 E1.63035
G1 X157.780 Y116.220 E1.78084
G1 X157.780 Y107.840 E1.91443
G1 X157.669 Y107.396 F7800.000
G1 X168.036 Y107.036 F7800.000
G1 F900
G1 X169.964 Y107.036 E1.94870
G1 X169.964 Y116.964 E2.12520
G1 X168.036 Y116.964 E2.15947
G1 X168.036 Y107.096 E2.33489
G1 X127.964 Y107.036 F7800.000
G1 F3600
G1 X156.964 Y107.036 E2.85045
G1 X156.964 Y116.964 E3.02694
G1 X115.036 Y116.964 E3.77233
G1 X115.036 Y100.964 E4.05677
G1 X30.036 Y100.964 E5.56788
G1 X30.036 Y83.036 E5.88660
G1 X127.964 Y83.036 E7.62753
G1 X127.964 Y106.976 E8.05313
G1 X128.383 Y106.617 F7800.000
G1 F3600
G1 X170.383 Y106.617 E8.79980
G1 X170.383 Y117.383 E8.99119
G1 X114.617 Y117.383 E9.98258
G1 X114.617 Y101.383 E10.26702
G1 X29.617 Y101.383 E11.77813
G1 X29.617 Y82.617 E12.11174
G1 X128.383 Y82.617 E13.86757
G1 X128.383 Y106.557 E14.29317
G1 X128.780 Y106.220 F7800.000
G1 F1800
G1 X170.780 Y106.220 E14.96273
G1 X170.780 Y117.780 E15.14701
G1 X114.220 Y117.780 E16.04868
G1 X114.220 Y101.780 E16.30375
G1 X29.220 Y101.780 E17.65880
G1 X29.220 Y82.220 E17.97062
G1 X128.780 Y82.220 E19.55779
G1 X128.780 Y106.160 E19.93943
G1 X128.952 Y106.581 F7800.000
G1 X127.921 Y107.292 F7800.000
G1 F1200
G1 X137.337 Y116.708 E20.17638
G1 X137.930 Y116.708 E20.18693
G1 X128.514 Y107.292 E20.42388
G1 X129.107 Y107.292 E20.43443
G1 X138.523 Y116.708 E20.67138
G1 X139.116 Y116.708 E20.68193
G1 X129.700 Y107.292 E20.91888
G1 X130.293 Y107.292 E20.92943
G1 X139.709 Y116.708 E21.16638
G1 X140.302 Y116.708 E21.17693
G1 X130.886 Y107.292 E21.41388
G1 X131.479 Y107.292 E21.42443
G1 X140.895 Y116.708 E21.66138
G1 X141.488 Y116.708 E21.67193
G1 X132.072 Y107.292 E21.90888
G1 X132.665 Y107.292 E21.91943
G1 X142.080 Y116.708 E22.15637
G1 X142.673 Y116.708 E22.16693
G1 X133.258 Y107.292 E22.40387
G1 X133.851 Y107.292 E22.41442
G1 X143.266 Y116.708 E22.65137
G1 X143.859 Y116.708 E22.66192
G1 X134.443 Y107.292 E22.89887
G1 X135.036 Y107.292 E22.90942
